!!!COM: Haydn, Franz Joseph
!!!OTL: String Quartet in G Minor
!!!OPS: Opus 74
!!!ONM: No. 3
!!!OMD: Finale: Allegro
!!!OMV: 4
!!!SCT: H III:74
!!!SCA: Thematisch-bibliographisches Werkevererzeichnis (A. van Hoboken)
!!!YOR: Trautwein Edition
!!!ENC: Frances Bennion
!!!CDT: 1732/3/31/-1809/5/31/
!!!CNT: Oesterreich
!!!YEC: Copyright (c) 1994, 2000 Center for Computer Assisted Research in the Humanities
!!!YEM: Rights to all derivative editions reserved.
!!!YEM: Refer to licensing agreement for further details.
!!!YEN: United States of America
**kern	**kern	**kern	**kern
*k[b-e-]	*k[b-e-]	*k[b-e-]	*k[b-e-]
*g:	*g:	*g:	*g:
*clefF4	*clefC3	*clefF	*clefF
*M4/4	*M4/4	*M4/4	*M4/4
2..r	2..r	2..r	2..r
8r	8r	8r	16G
.	.	.	16B-
=1	=1	=1	=1
8GG	8D	8B-	8d
8r	8r	8r	8d
8GG	8D	8B-	8r
8r	8r	8r	8d
8GG	8D	8B-	8r
8r	8r	8r	8d
8GG	8D	8B-	8r
8r	8r	8r	8d
=2	=2	=2	=2
8FF#	8D 8c	8A	16d
.	.	.	16e-
8r	8r	8r	16d
.	.	.	16c#
8FF#	8D 8c	8A	8d
8r	8r	8r	8d
8FF#	8D 8c	8A	8r
8r	8r	8r	8d
8FF#	8c 8D	8A	8r
8r	8r	8r	8d
=3	=3	=3	=3
8GG	8D	8B-	8d
8G	8B-	8d	8b-
8G	8B-	8d	2b-
8G	8B-	8d	.
8G	8B-	8d	.
8G	8B-	8d	.
8G	8B-	8d	8a
8G	8B-	8d	8g
=4	=4	=4	=4
8A	8c	8d	16f#
.	.	.	16g
8A	8c	8d	16f#
.	.	.	16e
8A	8c	8d	16f#
.	.	.	16d
8A	8c	8d	16e
.	.	.	16f#
8A	8c	8d	16g
.	.	.	16a
8A	8c	8d	16b-
.	.	.	16cc
8A	8c	8d	16dd
.	.	.	16cc
8A	8c	8d	16b-
.	.	.	16a
=5	=5	=5	=5
8B-	8d	8g	16g
.	.	.	16a
8B-	8d	8g	16g
.	.	.	16f#
8B-	8d	8g	16g
.	.	.	16a
8B-	8d	8g	16b-
.	.	.	16cc
8B-	8d	8g	16dd
.	.	.	16ee
8B-	8d	8g	16ff#
.	.	.	16gg
8B-	8d	8g	16ff#
.	.	.	16gg
8B-	8d	8g	16ff#
.	.	.	16gg
=6	=6	=6	=6
4c	4c	[1g	8ff
.	.	.	4ee-
4d	4d	.	.
.	.	.	4dd
4e-	4e-	.	.
.	.	.	4cc
4d	4d	.	.
.	.	.	[8b-
=7	=7	=7	=7
4c	4e-	8g]	8b-]
.	.	4f#	4a
4B-	4d	.	.
.	.	4g	4b-
4c	4e-	.	.
.	.	4f#	4a
4c#	4e	.	.
.	.	8g	8b-
=8	=8	=8	=8
8d	8d	8f#	8a
8d	8d	8f#	8dd
8d	8d	8f#	8dd
8d	8d	8f#	8dd
4d	4d	4f#	4dd
4r	4r	4r	8r
.	.	.	16G
.	.	.	16B-
=9	=9	=9	=9
8GG	8D	8B-	8d
8r	8r	8r	8d
8GG	8D	8B-	8r
8r	8r	8r	8d
8GG	8D	8B-	8r
8r	8r	8r	8d
8GG	8D	8B-	8r
8r	8r	8r	8d
=10	=10	=10	=10
8FF#	8c 8D	8A	16d
.	.	.	16e-
8r	8r	8r	16d
.	.	.	16c#
8FF#	8c 8D	8A	8d
8r	8r	8r	8d
8FF#	8c 8D	8A	8r
8r	8r	8r	8d
8FF#	8D 8c	8A	8r
8r	8r	8r	8d
=11	=11	=11	=11
8GG	8D	8B-	8d
8G	8G	8d	8b-
8G	8G	8d	2b-
8G	8G	8d	.
8G	8G	8d	.
8G	8G	8d	.
8G	8G	8d	8a
8G	8G	8d	8g
=12	=12	=12	=12
8AA	8c	8e-	8f
8A	8c	8ee-	8gg
8A	8c	2ee-	2gg
8A	8c	.	.
8A	8c	.	.
8A	8c	.	.
8A	8c	8dd	8ff
8A	8c	8cc	8ee-
=13	=13	=13	=13
8B-	8d	8b-	8dd
8r	8r	8r	4ff
8B-	8d	8f	.
8r	8r	8r	4ff
8B-	8d	8f	.
8r	8r	8r	16gg
.	.	.	16ff
8B-	8d	8f	16ee-
.	.	.	16dd
8r	8r	8r	16cc
.	.	.	16b-
=14	=14	=14	=14
8c	8e-	8f	8a
8r	8r	8r	4ccc
8c	8f	8a 8e-	.
8r	8r	8r	4bb-
8c	8f	8a 8e-	.
8r	8r	8r	8aa
8c	8f	8a 8e-	8gg
8r	8r	8r	8ff
=15	=15	=15	=15
8d	8f	8b-	8ff
8r	8r	8r	4fff
8d	8f	8b-	.
8r	8r	8r	4eee-
8d	8f	8b-	.
8r	8r	8r	8ddd
8d	8f	8b-	8ccc
8r	8r	8r	8bb-
=16	=16	=16	=16
8e-	8g	8b-	8aa
8r	8r	8r	4gg
8e-	8g	8b	.
8r	8r	8r	4ff
8e-	8g	8cc	.
8r	8r	8r	8ee-
8e-	8g	8cc	8dd
8r	8r	8r	8cc
=17	=17	=17	=17
8f	8f	8a-	8b
8r	8r	8r	16dd
.	.	.	16cc
8e-	8e-	8g	8cc
8r	8r	8r	16ee-
.	.	.	16dd
8d	8g	8b	8dd
8r	8r	8r	16ff
.	.	.	16ee-
8c	8g	8cc	8ee-
8r	8r	8r	8gg
=18	=18	=18	=18
2F	2f	2d	2b-
4FF	4F	4c	4a
4r	4r	4r	8r
.	.	.	16b-
.	.	.	16dd
=19	=19	=19	=19
8BB-	8r	8r	4ff
8r	8d	8f	.
8D	8r	8r	8dd
8r	8d	8f	8bb-
8F	8r	8r	4ff
8r	8d	8f	.
8B-	8r	8r	8dd
8r	8d	8f	8b-
=20	=20	=20	=20
8F	8r	8r	8a
8r	8e-	8f	8r
8A	8r	8r	8cc
8r	8e-	8f	8r
8c	8r	8r	8ee-
8r	8e-	8f	4r
8A	8r	8r	.
8r	8e-	8f	8f
=21	=21	=21	=21
8BB-	8r	8r	16ff
.	.	.	16gg
8r	8d	8f	16ff
.	.	.	16ee-
8D	8r	8r	8dd
8r	8d	8f	8bb-
8F	8r	8r	16ff
.	.	.	16gg
8r	8d	8f	16ff
.	.	.	16ee-
8B-	8r	8r	8dd
8r	8d	8f	8b-
=22	=22	=22	=22
8F	8r	8r	16a
.	.	.	16b-
8r	8e-	8f	16a
.	.	.	16b-
8A	8r	8r	16cc
.	.	.	16dd
8r	8e-	8f	16cc
.	.	.	16dd
8c	8r	8r	4ee-
8r	8e-	8f	.
8A	8r	8r	8r
8r	8e-	8f	8f
=23	=23	=23	=23
8BB-	8d 8B-	16f	16dd
.	.	16g	16ee-
8B-	8d 8B-	16f	16dd
.	.	16e-	16cc
8B-	8d 8B-	8d	8b-
8B-	8B- 8d	8b-	8dd
8BB-	8B- 8d	16dd	16ff
.	.	16ee-	16gg
8B-	8B- 8d	16dd	16ff
.	.	16cc	16ee-
8B-	8B- 8d	8b-	8dd
8B-	8B- 8d	8dd	8ff
=24	=24	=24	=24
8BB-	8B-	8ff 8d 8b-	4ddd
8r	8r	8r	.
8BB-	8B-	8e- 8gg 8b-	16ccc
.	.	.	16bb-
8r	8r	8r	16aa
.	.	.	16gg
4BB-	4B-	4ff 4b- 4d	4ff
8r	8r	8r	8r
8F	8f	8a	8ff
=25	=25	=25	=25
8G	8g	8b-	8ee
8r	8r	8r	8r
8A	8f	8cc	8ee-
8r	8r	8r	8r
8B-	8f	8b-	8dd
8r	8r	8r	8r
4E-	4e-	4b-	4gg
=26	=26	=26	=26
1F	2B-	2d	[2b-
.	2c	2e-	8b-]
.	.	.	8a
.	.	.	8gg
.	.	.	8ff
=27	=27	=27	=27
2F#	2c	2a	2ee-
4G	4B-	4b-	4dd
4r	4r	4r	8r
.	.	.	16b-
.	.	.	16dd
=28	=28	=28	=28
8BB-	8r	2..r	4ff
8r	8d	.	.
8D	8r	.	8dd
8r	8d	.	8bb-
8F	8r	.	4ff
8r	8d	.	.
8B-	8r	.	8dd
8r	8d	16b-	8b-
.	.	16dd	.
=29	=29	=29	=29
8F	8r	4ee-	8a
8r	8c	.	8r
8A	8r	8cc	8cc
8r	8A	8ccc	8r
8c	8r	4aa	4ee-
8r	8F	.	.
8A	8r	8ee-	8r
8r	8F	8cc	8f
=30	=30	=30	=30
8BB-	8r	4dd	16ff
.	.	.	16gg
8r	8d	.	16ff
.	.	.	16ee-
8D	8r	2r	8dd
8r	8d	.	8bb-
8F	8r	.	16ff
.	.	.	16gg
8r	8d	.	16ff
.	.	.	16ee-
8B-	8r	8r	8dd
8r	8d	16b-	8b-
.	.	16dd	.
=31	=31	=31	=31
8F	8r	16ee-	16a
.	.	16ff	16b-
8r	8c	16ee-	16a
.	.	16dd	16b-
8A	8r	8cc	16cc
.	.	.	16dd
8r	8A	8ccc	16cc
.	.	.	16dd
8c	8r	16aa	4ee-
.	.	16bb-	.
8r	8F	16ccc	.
.	.	16aa	.
8F	8r	8ee-	8r
8r	8F	8a	8e-
=32	=32	=32	=32
4B-	4B-	4b-	16d
.	.	.	16b-
.	.	.	16ff
.	.	.	16gg
2r	2r	2r	16ff
.	.	.	16bb-
.	.	.	16aa
.	.	.	16gg
.	.	.	16ff
.	.	.	16ee-
.	.	.	16dd
.	.	.	16cc
8F	8c	8e- 8A	16b-
.	.	.	16a
8r	8r	8r	16cc
.	.	.	16e-
=33	=33	=33	=33
8BB-	8B-	8d 8B-	16d
.	.	.	16b-
2r	2r	2r	16ff
.	.	.	16gg
.	.	.	16ff
.	.	.	16bb-
.	.	.	16aa
.	.	.	16gg
.	.	.	16ff
.	.	.	16ee-
8r	8r	8r	16dd
.	.	.	16cc
8F	8c	8e- 8A	16b-
.	.	.	16a
8r	8r	8r	16cc
.	.	.	16e-
=34	=34	=34	=34
8B-	8B-	8d 8B-	16d
.	.	.	16b-
8r	8r	8r	16ff
.	.	.	16ff
8B-	8e-	8gg	16e-
.	.	.	16b-
8r	8r	8r	16gg
.	.	.	16gg
8B-	8d	8ff	16d
.	.	.	16b-
8r	8r	8r	16ff
.	.	.	16ff
8B-	8e-	8gg	16e-
.	.	.	16b-
8r	8r	8r	16gg
.	.	.	16gg
=35	=35	=35	=35
4B-	4d	4ff	16ff
.	.	.	16bb-
.	.	.	16aa
.	.	.	16gg
4r	4r	4r	16ff
.	.	.	16ee-
.	.	.	16dd
.	.	.	16cc
4B-	4d	16r	16b-
.	.	16bb-	16ddd
.	.	16aa	16ccc
.	.	16gg	16bb-
4r	4r	16ff	16aa
.	.	16ee-	16gg
.	.	16dd	16ff
.	.	16cc	16ee-
=36	=36	=36	=36
4B-	4d	16b-	16dd
.	.	16ddd	16fff
.	.	16ccc	16eee-
.	.	16bb-	16ddd
2.r	2.r	16aa	16ccc
.	.	16gg	16bb-
.	.	16ff	16aa
.	.	16ee-	16gg
.	.	4dd	16ff
.	.	.	16bbb-
.	.	.	16bbb-
.	.	.	16bbb-
.	.	4r	16bbb-
.	.	.	16bbb-
.	.	.	16bbb-
.	.	.	16bbb-
=37	=37	=37	=37
4.r	4.r	4.r	4bbb-
.	.	.	8r
8BB	8B	8B	8B
8BB	8B	8B	8B
8BB	8B	8B	8B
8BB	8B	8B	8B
8BB	8B	8B	8B
=38	=38	=38	=38
2BB	2d	2f	2a-
8C	8c	8e-	8g
8C	8c	8c	8c
8BB	8B	8B	8B
8BB-	8B-	8B-	8B-
=39	=39	=39	=39
2AA	2c	2e-	2g-
8BB-	8B-	8d	8d
8BB-	8B-	8B-	8B-
8AA	8A	8A	8A
8AA-	8A-	8A-	8A-
=40	=40	=40	=40
8GG	8G	8G	8G
8EE-	8G	8B-	16B-
.	.	.	16e-
8EE-	8G	8B-	8g
8EE-	8G	8B-	8b-
8EE-	8G	8B-	8ee-
8EE-	8G	8B-	8gg
8EE-	8G	8B-	8bb-
8EE-	8G	8B-	8gg
=41	=41	=41	=41
8FF	8B-	8d	[4ff
8F	8B-	8d	.
8F	8B-	8d	16ff]
.	.	.	16bb-
8E	8B-	8c#	16aa
.	.	.	16gg
8F	8B-	8d	[4ff
8F	8B-	8d	.
8F	8B-	8d	16ff]
.	.	.	16bb-
8E	8B-	8c#	16aa
.	.	.	16gg
=42	=42	=42	=42
1F	1B-	1d	16ff
.	.	.	16gg
.	.	.	16ff
.	.	.	16ee
.	.	.	16ff
.	.	.	16bb-
.	.	.	16aa
.	.	.	16gg
.	.	.	16ff
.	.	.	16ee-
.	.	.	16dd
.	.	.	16cc
.	.	.	16b-
.	.	.	16a
.	.	.	16g
.	.	.	16f
=43	=43	=43	=43
2G	2B-	1c	16e
.	.	.	16f
.	.	.	16e
.	.	.	16d
.	.	.	8e
.	.	.	8gg
2A	2F	.	16e-
.	.	.	16f
.	.	.	16e-
.	.	.	16d
.	.	.	8e-
.	.	.	8cc
=44	=44	=44	=44
4B-	16B-	16d	4d
.	16c	16e-	.
.	16B-	16d	.
.	16A	16c	.
2.r	16B-	16d	2ff
.	16d	16f	.
.	16c	16e-	.
.	16B-	16d	.
.	16c	16e-	.
.	16d	16f	.
.	16c	16e-	.
.	16B	16d	.
.	16c	16e-	4a
.	16e-	16g	.
.	16d	16f	.
.	16c	16e-	.
=45	=45	=45	=45
1r	2d	4f	16b-
.	.	.	16cc
.	.	.	16b-
.	.	.	16a
.	.	2b-	16b-
.	.	.	16ff
.	.	.	16ee-
.	.	.	16dd
.	4e-	.	16cc
.	.	.	16dd
.	.	.	16cc
.	.	.	16b
.	4f	4a	16cc
.	.	.	16gg
.	.	.	16ff
.	.	.	16ee-
=46	=46	=46	=46
4B-	16d	16b-	4dd
.	16e-	16cc	.
.	16d	16b-	.
.	16c	16a	.
2.r	16d	16b-	2fff
.	16f	16dd	.
.	16e-	16cc	.
.	16d	16b-	.
.	16c	16a	.
.	16d	16b-	.
.	16e-	16cc	.
.	16f	16dd	.
.	16g	16ee-	4eee-
.	16a	16ff	.
.	16b-	16gg	.
.	16cc	16aa	.
=47	=47	=47	=47
8B-	8dd	8bb-	4ddd
8d	8f	8b-	.
8d	8f	8b-	2bbb-
8d	8f	8b-	.
8d	8f	8b-	.
8d	8f	8b-	.
8d	8f	8b-	4aaa-
8d	8f	8b-	.
=48	=48	=48	=48
8e-	8g	8b-	8fff#
8e-	8g	8b-	8ggg
8e-	8g	8b-	4.ggg
8e-	8g	8b-	.
4e-	4g	4b-	.
.	.	.	16fff#
.	.	.	16ggg
8r	8r	8r	[4bbb-
8e-	8g	8b-	.
=49	=49	=49	=49
4e-	4g	4b-	8bbb-]
.	.	.	16fff#
.	.	.	16ggg
2.r	2.r	2.r	8bbb-
.	.	.	16fff#
.	.	.	16ggg
.	.	.	8bbb-
.	.	.	16fff#
.	.	.	16ggg
.	.	.	8bbb-
.	.	.	8bbb-
=50	=50	=50	=50
2F	2f	2dd	2bb-
2F	2A	8ee-	8ccc
.	.	8dd	8bb-
.	.	8ee-	8ccc
.	.	8ff	8ddd
=51	=51	=51	=51
4B-	16b-	16dd	4bb-
.	16cc	16ee-	.
.	16b-	16dd	.
.	16a	16cc	.
4r	16b-	16dd	4r
.	16dd	16ff	.
.	16cc	16ee-	.
.	16b-	16dd	.
16F	2cc	2ee-	16a
16G	.	.	16b-
16A	.	.	16cc
16G	.	.	16b-
16F	.	.	16a
16c	.	.	16ee-
16A	.	.	16cc
16F	.	.	16a
=52	=52	=52	=52
4B-	16b-	16dd	4b-
.	16cc	16ee-	.
.	16b-	16dd	.
.	16a	16cc	.
4r	16b-	16dd	4r
.	16dd	16ff	.
.	16cc	16ee-	.
.	16b-	16dd	.
16F	2cc	2ee-	16aa
16G	.	.	16bb-
16A	.	.	16ccc
16G	.	.	16bb-
16F	.	.	16aa
16c	.	.	16eee-
16A	.	.	16ccc
16F	.	.	16aa
=53	=53	=53	=53
4B-	4b-	4dd	4bb-
4BB-	4B-	4ff	4ddd
4BB-	4B-	4dd	4bb-
4r	4r	8r	8r
.	.	16B-	8r
.	.	16d	.
=54	=54	=54	=54
8A-	1r	4f	2r
8A-	.	.	.
8A-	.	8d	.
8A-	.	8b-	.
8A-	.	4f	4r
8A-	.	.	.
8A-	.	8d	8r
8A-	.	8c	16dd
.	.	.	16ee-
=55	=55	=55	=55
8G	2..r	2B	4ff
8G	.	.	.
8G	.	.	8dd
8G	.	.	8ddd
8G	.	4dd	4bb
8G	.	.	.
8G	.	8b	8gg
8G	16G	8dd	8ff
.	16B	.	.
=56	=56	=56	=56
4C	4c	[1cc	[1ee-
2r	8G	.	.
.	8e-	.	.
.	4c	.	.
8r	8G	.	.
16C	8E-	.	.
16E-	.	.	.
=57	=57	=57	=57
4A-	[1A-	2.cc]	2..ee-]
8E-	.	.	.
8c	.	.	.
4A-	.	.	.
8E-	.	4c	.
8C	.	.	16a-
.	.	.	16cc
=58	=58	=58	=58
8BB-	2A-]	2f	4dd-
8BB-	.	.	.
8BB-	.	.	8b-
8BB-	.	.	8ddd-
8E-	2G	2B-	4bb-
8E-	.	.	.
8E-	.	.	8gg
8E-	.	.	8dd-
=59	=59	=59	=59
8AA-	8A-	8c	8cc
8r	8r	8r	8e-
8AA-	8E-	8c	8r
8r	8r	8r	8e-
8AA-	8E-	8c	8r
8r	8r	8r	8e-
8AA-	8E-	8c	8r
8r	8r	8r	8e-
=60	=60	=60	=60
8GG	8B- 8E-	8d-	16e-
.	.	.	16f
8r	8r	8r	16e-
.	.	.	16d
8GG	8B- 8E-	8d-	8e-
8r	8r	8r	8e-
8GG	8B- 8E-	8d-	8r
8r	8r	8r	8e-
8GG	8B- 8E-	8d-	8r
8r	8r	8r	8e-
=61	=61	=61	=61
8AA-	8c	8e-	8e-
8A-	8c	8e-	8cc
8A-	8c	8e-	2cc
8A-	8c	8e-	.
8A-	8c	8e-	.
8A-	8c	8e-	.
8A-	8c	8e-	8b-
8A-	8c	8e-	8a-
=62	=62	=62	=62
8B-	8B-	8e- 8d-	8g
8B-	8g	8e- 8d-	8ff
8B-	8g	8e- 8d-	2ff
8B-	8g	8e- 8d-	.
8B-	8g	8e- 8d-	.
8B-	8g	8e- 8d-	.
8B-	8g	8e- 8d-	16ee-
.	.	.	16dd-
8B-	8g	8e- 8d-	16cc
.	.	.	16b-
=63	=63	=63	=63
4c	8c	8e-	8a-
.	8r	8r	4gg-
2.r	8d-	8f	.
.	8r	8r	4ff
.	8e-	8g-	.
.	4.r	4.r	8ee-
.	.	.	8dd-
.	.	.	8cc
=64	=64	=64	=64
8D-	8F	1r	8dd-
8r	8r	.	4aa-
8E-	8G-	.	.
8r	8r	.	4gg-
8F	8A-	.	.
4.r	4.r	.	8ff
.	.	.	8ee-
.	.	.	8dd-
=65	=65	=65	=65
1r	8d	8f	8b-
.	8r	8r	4aa-
.	8e-	8g	.
.	8r	8r	4gg
.	8f	8a-	.
.	4.r	4.r	8ff
.	.	.	8ee-
.	.	.	8dd
=66	=66	=66	=66
8E-	8G	1r	8ee-
8r	8r	.	4bb-
8F	8A-	.	.
8r	8r	.	4aa-
8G	8B-	.	.
4.r	4.r	.	8gg
.	.	.	8ff
.	.	.	8ee-
=67	=67	=67	=67
1r	4g	4b-	8dd-
.	.	.	4bb-
.	4f	4a-	.
.	.	.	4ccc
.	4e	4g	.
.	.	.	4ddd-
.	4b-	4dd-	.
.	.	.	[8ee
=68	=68	=68	=68
2.r	4a-	4cc	8ee]
.	.	.	4ff
.	4g	4b-	.
.	.	.	4gg
.	4f	4a-	.
.	.	.	4aa-
4DD-	4d-	4f	.
.	.	.	[8b
=69	=69	=69	=69
4CC	4c	4e	8b]
.	.	.	4cc
4DD-	4d-	4B	.
.	.	.	4ff
4CC	4c	4c	.
.	.	.	4ee
4DD-	4d-	4f	.
.	.	.	[8b
=70	=70	=70	=70
4CC	4c	4e	8b]
.	.	.	8cc
2.r	2.r	2.r	2r
.	.	.	8r
.	.	.	16f
.	.	.	16a-
=71	=71	=71	=71
1r	8f	8a-	8cc
.	8r	8r	8cc
.	8f	8a-	8r
.	8r	8r	8cc
.	8f	8a-	8r
.	8r	8r	8cc
.	8f	8a-	8r
.	8r	8r	8cc
=72	=72	=72	=72
2r	2e	2g	16cc
.	.	.	16dd-
.	.	.	16cc
.	.	.	16b
.	.	.	8cc
.	.	.	8cc
4r	4r	4.r	4r
8r	8r	.	8r
8r	8r	16f	8r
.	.	16a-	.
=73	=73	=73	=73
1r	8f	8cc	1aa-
.	8r	8cc	.
.	8f	8r	.
.	8r	8cc	.
.	8f	8r	.
.	8r	8cc	.
.	8f	8r	.
.	8r	8cc	.
=74	=74	=74	=74
1r	2e-	16cc	2gg-
.	.	16dd-	.
.	.	16cc	.
.	.	16b	.
.	.	8cc	.
.	.	8cc	.
.	2r	2r	2r
=75	=75	=75	=75
8AA	8f	8cc	16ff
.	.	.	16gg-
8AA	8f	8cc	16ff
.	.	.	16ee
8AA	8f	8cc	8ff
8AA	8f	8cc	8ff
4r	4r	4r	4.r
8r	8r	8r	.
8r	8r	8r	16B-
.	.	.	16d-
=76	=76	=76	=76
8B-	8d-	1r	8f
8r	8r	.	8f
8B-	8d-	.	8r
8r	8r	.	8f
8B-	8d-	.	8r
8r	8r	.	8g-
8B-	8d-	.	8r
8r	8r	.	8g-
=77	=77	=77	=77
8c-	8e-	1r	16g-
.	.	.	16a-
8r	8r	.	16g-
.	.	.	16f
8c-	8e-	.	8g-
8r	8r	.	8g-
8c-	8e-	.	8r
8r	8r	.	8g
8c-	8e-	.	8r
8r	8r	.	8g
=78	=78	=78	=78
8c	8e-	2r	16a-
.	.	.	16b-
8r	8r	.	16a-
.	.	.	16g
8c	8e-	.	8a-
8r	8r	.	8a-
8c	8e-	2gg-	8r
8r	8r	.	8a
8c	8e-	.	8r
8r	8r	.	8a
=79	=79	=79	=79
8d-	8f	2ff	16b-
.	.	.	16cc
8r	8r	.	16b-
.	.	.	16a
8d-	8f	.	8b-
8r	8r	.	8b-
8d-	8f	4aa-	8r
8r	8r	.	8b
8d-	8f	4ff	8r
8r	8r	.	8b
=80	=80	=80	=80
8c	8e	8cc	16cc
.	.	.	16dd-
8r	8r	8r	16cc
.	.	.	16b
8c	8e	8g	8cc
8r	8r	8r	8cc
8c	8f	8a-	16cc
.	.	.	16dd-
8r	8r	8r	16cc
.	.	.	16b
8c	8f	8a-	8cc
8r	8r	8r	8cc
=81	=81	=81	=81
8c	8e	8g	16cc
.	.	.	16dd-
8r	8r	8r	16cc
.	.	.	16b
8c	8e	8g	8cc
8r	8r	8r	8cc
8c	8f	8a-	16cc
.	.	.	16dd-
8r	8r	8r	16cc
.	.	.	16b
8c	8f	8a-	8cc
8r	8r	8r	8cc
=82	=82	=82	=82
4c	4e	4g	16cc
.	.	.	16dd-
.	.	.	16cc
.	.	.	16b
2.r	2.r	2.r	8cc
.	.	.	8cc
.	.	.	16cc
.	.	.	16dd-
.	.	.	16cc
.	.	.	16b
.	.	.	8cc
.	.	.	8cc
=83	=83	=83	=83
8CC 8C	8g	8e- 8G	16ee-
.	.	.	16ff
8C 8CC	8g	8e- 8G	16ee-
.	.	.	16dd
8CC 8C	8g	8G 8e-	16ee-
.	.	.	16ff
8C 8CC	8g	8e- 8G	16ee-
.	.	.	16dd
8C 8CC	8g	8e- 8G	16ee-
.	.	.	16ff
8CC 8C	8g	8G 8e-	16ee-
.	.	.	16dd
8C 8CC	8g	8e- 8G	8ee-
8CC 8C	8g	8e- 8G	8ee-
=84	=84	=84	=84
8C 8CC	8f#	8e- 8A	4.ccc
8CC 8C	8f#	8e- 8A	.
8CC 8C	8f#	8e- 8A	.
8CC 8C	8f#	8e- 8A	16ff#
.	.	.	16aa
8C 8CC	8f#	8A 8e-	8ccc
8C 8CC	8f#	8e- 8A	16cc
.	.	.	16ff#
8C 8CC	8f#	8A 8e-	8aa
8CC 8C	8f#	8A 8e-	16a
.	.	.	16cc
=85	=85	=85	=85
8CC 8C	8f#	8A 8e-	8ee-
8CC 8C	8f#	8A 8e-	16f#
.	.	.	16a
8C 8CC	8f#	8A 8e-	8cc
8CC 8C	8f#	8e- 8A	16e-
.	.	.	16f#
8CC 8C	8f#	8A 8e-	8a
8C 8CC	8f#	8e- 8A	16c
.	.	.	16e-
8CC 8C	8f#	8A 8e-	8f#
8C 8CC	8f#	8A 8e-	16A
.	.	.	16c
=86	=86	=86	=86
4CC 4C	4f#	4A 4e-	4e-
4r	4r	4r	8r
.	.	.	16A
.	.	.	16c
8CC 8C	8F#	8e- 8A	8e-
8r	8r	8r	16A
.	.	.	16c
8C 8CC	8F#	8e- 8A	8e-
8r	8r	8r	16A
.	.	.	16c
=87	=87	=87	=87
4C 4CC	4F#	4A 4e-	4e-
2.r	2.r	2.r	2r
.	.	.	8r
.	.	.	16G
.	.	.	16B-
=88	=88	=88	=88
8GG	8D	8B-	8d
8r	8r	8r	8d
8GG	8D	8B-	8r
8r	8r	8r	8d
8GG	8D	8B-	8r
8r	8r	8r	8d
8GG	8D	8B-	8r
8r	8r	8r	8d
=89	=89	=89	=89
8FF#	8D 8c	8A	16d
.	.	.	16e-
8r	8r	8r	16d
.	.	.	16c#
8FF#	8D 8c	8A	8d
8r	8r	8r	8d
8FF#	8D 8c	8A	8r
8r	8r	8r	8d
8FF#	8D 8c	8A	8r
8r	8r	8r	8d
=90	=90	=90	=90
8GG	8D	8B-	8d
8G	8B-	8d	8b-
8G	8B-	8d	2b-
8G	8B-	8d	.
8G	8B-	8d	.
8G	8B-	8d	.
8G	8B-	8d	8a
8G	8B-	8d	8g
=91	=91	=91	=91
8A	8c	8d	16f#
.	.	.	16g
8A	8c	8d	16f#
.	.	.	16e
8A	8c	8d	16f#
.	.	.	16d
8A	8c	8d	16e
.	.	.	16f#
8A	8c	8d	16g
.	.	.	16a
8A	8c	8d	16b-
.	.	.	16cc
8A	8c	8d	16dd
.	.	.	16cc
8A	8c	8d	16b-
.	.	.	16a
=92	=92	=92	=92
8B-	8d	8g	16g
.	.	.	16a
8B-	8d	8g	16g
.	.	.	16f#
8B-	8d	8g	16g
.	.	.	16a
8B-	8d	8g	16b-
.	.	.	16cc
8B-	8d	8g	16dd
.	.	.	16ee
8B-	8d	8g	16ff#
.	.	.	16gg
8B-	8d	8g	16ff#
.	.	.	16gg
8B-	8d	8g	16ff#
.	.	.	16gg
=93	=93	=93	=93
4c	4c	[1g	8ff
.	.	.	4ee-
4d	4d	.	.
.	.	.	4dd
4e-	4e-	.	.
.	.	.	4cc
4d	4d	.	.
.	.	.	[8b-
=94	=94	=94	=94
4c	4e-	8g]	8b-]
.	.	4f#	4a
4B-	4d	.	.
.	.	4g	4b-
4c	4e-	.	.
.	.	4f#	4a
4c#	4e	.	.
.	.	8g	8b-
=95	=95	=95	=95
16d	4d	8f#	8a
16e-	.	.	.
16d	.	8r	8r
16c#	.	.	.
8d	4r	8g	8b-
8d	.	8r	8r
8d	16D	8a	8cc
.	16E-	.	.
8d	16D	8r	8r
.	16C#	.	.
8d	8D	8f#	8a
8d	8D	8r	8r
=96	=96	=96	=96
16d	2r	8g	8b-
16e-	.	.	.
16d	.	8r	8r
16c#	.	.	.
8d	.	8a	8cc
8d	.	8r	8r
8d	16D	8b-	8dd
.	16E-	.	.
8d	16D	8r	8r
.	16C#	.	.
8d	8D	8b-	8gg
8d	8D	8r	8r
=97	=97	=97	=97
16d	8cc	8a	8ff#
16e-	.	.	.
16d	8r	8r	8r
16c#	.	.	.
8d	8b-	8b-	8gg
8d	8r	8r	8r
8d	8a	8cc	8aa
8d	8r	8r	8r
8d	8g	8dd	8bb-
8d	8r	8r	8r
=98	=98	=98	=98
16d	2f#	2ee-	2ccc
16e-	.	.	.
16d	.	.	.
16c#	.	.	.
8d	.	.	.
8d	.	.	.
16d	2a	2cc	2aa
16e-	.	.	.
16d	.	.	.
16c#	.	.	.
8d	.	.	.
8d	.	.	.
=99	=99	=99	=99
2.d	2.cc	2.a	2.ff#
8r	8r	8r	8r
8r	8r	8r	16g
.	.	.	16b
=100	=100	=100	=100
8GG	8r	8r	4dd
8r	8B	8d	.
8BB	8r	8r	8b
8r	8B	8d	8gg
8D	8r	8r	4dd
8r	8B	8d	.
8G	8r	8r	8b
8r	8B	8d	8g
=101	=101	=101	=101
8D	8r	8r	8f#
8r	8c	8d	8r
8F#	8r	8r	8a
8r	8c	8d	8r
8A	8r	8r	8cc
8r	8c	8d	4r
8F#	8r	8r	.
8r	8c	8d	8d
=102	=102	=102	=102
8GG	8r	8r	16dd
.	.	.	16ee
8r	8B	8d	16dd
.	.	.	16cc
8BB	8r	8r	8b
8r	8B	8d	8gg
8D	8r	8r	16dd
.	.	.	16ee
8r	8B	8d	16dd
.	.	.	16cc
8G	8r	8r	8b
8r	8B	8d	8g
=103	=103	=103	=103
8D	8r	8r	16f#
.	.	.	16g
8r	8c	8d	16f#
.	.	.	16g
8F#	8r	8r	16a
.	.	.	16b
8r	8c	8d	16a
.	.	.	16b
8A	8r	8r	4cc
8r	8c	8d	.
8F#	8r	8r	8r
8r	8c	8d	8d
=104	=104	=104	=104
8GG	8B	16d	16b
.	.	16e	16cc
8G	8B	16d	16b
.	.	16c	16a
8G	8B	8B	8g
8G	8B	8g	8b
8GG	8B	16b	16dd
.	.	16cc	16ee
8G	8B	16b	16dd
.	.	16a	16cc
8G	8B	8g	8b
8G	8B	8b	8dd
=105	=105	=105	=105
8GG	8B	8dd	4bb
8r	8r	8r	.
8GG	8c	8ee	16aa
.	.	.	16gg
8r	8r	8r	16ff#
.	.	.	16ee
4GG	4B	4dd	4dd
8r	8r	8r	8r
8D	8d	8f#	8dd
=106	=106	=106	=106
8E	8e	8g	8cc#
8r	8r	8r	8r
8F#	8d	8a	8cc
8r	8r	8r	8r
8G	8d	8g	8b
8r	8r	8r	8r
4C	4c	4g	4ee
=107	=107	=107	=107
1D	2G	2B	[2g
.	2A	2c	8g]
.	.	.	8f#
.	.	.	8ee
.	.	.	8dd
=108	=108	=108	=108
2D#	2A	2f#	2cc
4E	4G	4g	4b
4r	4r	8r	4r
.	.	16g	.
.	.	16b	.
=109	=109	=109	=109
8GG	8r	4dd	2..r
8r	8B	.	.
8BB	8r	8b	.
8r	8B	8gg	.
8D	8r	4dd	.
8r	8B	.	.
8G	8r	8b	.
8r	8B	8g	16g
.	.	.	16b
=110	=110	=110	=110
8D	8r	8f#	4cc
8r	8A	8r	.
8F#	8r	8a	8a
8r	8F#	8r	8aa
8A	8r	4cc	4ff#
8r	8D	.	.
8F#	8r	8r	8cc
8r	8D	8d	8a
=111	=111	=111	=111
8GG	8r	16dd	4b
.	.	16ee	.
8r	8B	16dd	.
.	.	16cc	.
8BB	8r	8b	2r
8r	8B	8gg	.
8D	8r	16dd	.
.	.	16ee	.
8r	8B	16dd	.
.	.	16cc	.
8G	8r	8b	8r
8r	8B	8g	16g
.	.	.	16b
=112	=112	=112	=112
8D	8r	16f#	4cc
.	.	16g	.
8r	8A	16f#	.
.	.	16g	.
8F#	8r	16a	8a
.	.	16b	.
8r	8F#	16a	8aa
.	.	16b	.
8A	8r	4cc	4ff#
8r	8D	.	.
8D	8r	8r	8cc
8r	8d	8f#	8a
=113	=113	=113	=113
4G	4d	4g	16b
.	.	.	16dd
.	.	.	16gg
.	.	.	16bb
2r	2r	2r	16aa
.	.	.	16gg
.	.	.	16ff#
.	.	.	16ee
.	.	.	16dd
.	.	.	16b
.	.	.	16cc
.	.	.	16b
4D	4A	4f#	16cc
.	.	.	16a
.	.	.	16f#
.	.	.	16d
=114	=114	=114	=114
4G	4B	4g	16b
.	.	.	16dd
.	.	.	16gg
.	.	.	16bb
2r	2r	2r	16aa
.	.	.	16gg
.	.	.	16ff#
.	.	.	16ee
.	.	.	16dd
.	.	.	16b
.	.	.	16cc
.	.	.	16b
4D	4f#	4a	16cc
.	.	.	16a
.	.	.	16f#
.	.	.	16d
=115	=115	=115	=115
8G	8g	16b	8dd
.	.	16g	.
8r	8r	16d	8B
.	.	16g	.
8G	16e	8e	8c
.	16g	.	.
8r	16b	8r	8ee
.	16cc	.	.
8G	8b	16b	8dd
.	.	16g	.
8r	8r	16d	8B
.	.	16g	.
8G	16e	8e	8c
.	16g	.	.
8r	16b	8r	8ee
.	16cc	.	.
=116	=116	=116	=116
4G	4b	4b 4d	16dd
.	.	.	16gg
.	.	.	16ff#
.	.	.	16ee
4r	4r	4r	16dd
.	.	.	16cc
.	.	.	16b
.	.	.	16a
4G	4b 4d	16r	16g
.	.	16gg	16bb
.	.	16ff#	16aa
.	.	16ee	16gg
4r	4r	16dd	16ff#
.	.	16cc	16ee
.	.	16b	16dd
.	.	16a	16cc
=117	=117	=117	=117
4G	16r	16g	16b
.	16G	16bb	16ddd
.	16A	16aa	16ccc
.	16B	16gg	16bb
2.r	16c	16ff#	16aa
.	16d	16ee	16gg
.	16e	16dd	16ff#
.	16f#	16cc	16ee
.	4g	4b	16dd
.	.	.	16ggg
.	.	.	16ggg
.	.	.	16ggg
.	4r	4r	16ggg
.	.	.	16ggg
.	.	.	16ggg
.	.	.	16ggg
=118	=118	=118	=118
4.r	4.r	4r	4ggg
.	.	8r	8r
8GG#	8G#	8G#	8G#
8GG#	8G#	8G#	8G#
8GG#	8G#	8G#	8G#
8GG#	8G#	8G#	8G#
8GG#	8G#	8G#	8G#
=119	=119	=119	=119
2GG#	2B	2d	2f
8AA	8A	8c	8e
8AA	8A	8A	8A
8GG#	8G#	8G#	8G#
8AA	8A	8A	8A
=120	=120	=120	=120
2FF#	2A	2c	2e-
4GG	8G	8B	8d
.	8G	8B	8g
4r	8A	8c	8f#
.	8B	8d	8f
=121	=121	=121	=121
4CC	4c	4e	8e
.	.	.	8f#
2.r	8r	8r	8g
.	8B	8d	8g#
.	8c	8e	8a
.	8B	8d	8b
.	8A	8c	8cc
.	8c	8e	8a
=122	=122	=122	=122
1D	8d	8d	8f#
.	8c#	8e	8g
.	8c	8f#	8a
.	8B	8g	8b
.	8A	8a	8cc
.	8G	8b	8dd
.	8F#	8cc	8ee
.	8F#	8A	8cc
=123	=123	=123	=123
4G	16G	16B	4b
.	16A	16c	.
.	16G	16B	.
.	16F#	16A	.
2.r	16G	16B	2dd
.	16B	16d	.
.	16A	16c	.
.	16G	16B	.
.	16A	16c	.
.	16B	16d	.
.	16A	16c	.
.	16G	16B	.
.	16A	16c	4f#
.	16c	16e	.
.	16B	16d	.
.	16A	16c	.
=124	=124	=124	=124
1r	2B	4d	16g
.	.	.	16a
.	.	.	16g
.	.	.	16f#
.	.	2g	16g
.	.	.	16b
.	.	.	16dd
.	.	.	16b
.	4c	.	16a
.	.	.	16b
.	.	.	16a
.	.	.	16b
.	4d	4f#	16a
.	.	.	16ee
.	.	.	16dd
.	.	.	16cc
=125	=125	=125	=125
4G	16B	16g	4b
.	16c	16a	.
.	16B	16g	.
.	16A	16f#	.
2.r	16B	16g	2ddd
.	16d	16b	.
.	16c	16a	.
.	16B	16g	.
.	16A	16f#	.
.	16B	16g	.
.	16c	16a	.
.	16d	16b	.
.	16e	16cc	4ccc
.	16f#	16dd	.
.	16g	16ee	.
.	16a	16ff#	.
=126	=126	=126	=126
8G	8b	8gg	4bb
8B	8d	8g	.
8B	8d	8g	2ggg
8B	8d	8g	.
8B	8d	8g	.
8B	8d	8g	.
8B	8d	8g	4fff
8B	8d	8g	.
=127	=127	=127	=127
8c	8e	8g	8ddd#
8c	8e	8g	8eee
8c	8e	8g	4.eee
8c	8e	8g	.
4c	4e	4g	.
.	.	.	16ddd#
.	.	.	16eee
8r	8r	8r	[4ggg
8c	8e	8g	.
=128	=128	=128	=128
4c	4e	4g	8ggg]
.	.	.	16ddd#
.	.	.	16eee
2.r	2.r	2.r	8ggg
.	.	.	16ddd#
.	.	.	16eee
.	.	.	8ggg
.	.	.	16ddd#
.	.	.	16eee
.	.	.	16ggg
.	.	.	16eee
.	.	.	16ccc
.	.	.	16aa
=129	=129	=129	=129
8D	2g	2b	2gg
8D	.	.	.
8D	.	.	.
8D	.	.	.
8D	2f#	8cc	8aa
8D	.	8b	8gg
8D	.	8cc	8aa
8D	.	8dd	8bb
=130	=130	=130	=130
4E	4g	4b	4gg
4E	4c	4g	4ccc
2r	2r	2r	2r
=131	=131	=131	=131
2r	8f#	8a	8dd
.	8r	8r	4ccc
.	8g	8b	.
.	8r	8r	4bb
16d	8a	8cc	.
16e	.	.	.
16d	4.r	4.r	8aa
16c#	.	.	.
8d	.	.	8gg
8d	.	.	8ff#
=132	=132	=132	=132
2r	8g	8b	8dd
.	8r	8r	4ddd
.	8a	8cc	.
.	8r	8r	4ccc
16d	8b	8dd	.
16e	.	.	.
16d	4.r	4.r	8bb
16c#	.	.	.
8d	.	.	8aa
8d	.	.	8gg
=133	=133	=133	=133
8F#	2r	8d	8aa
8r	.	4cc	8r
8G	.	.	8bb
8r	.	4b	8r
8A	16dd	.	8ccc
.	16ee	.	.
4.r	16dd	8a	4.r
.	16cc#	.	.
.	8dd	8g	.
.	8dd	8f#	.
=134	=134	=134	=134
8G	2r	8d	8bb
8r	.	4dd	8r
8A	.	.	8ccc
8r	.	4cc	8r
8B	16dd	.	8ddd
.	16ee	.	.
4.r	16dd	8b	4.r
.	16cc#	.	.
.	8dd	8a	.
.	8dd	8g	.
=135	=135	=135	=135
8C	4r	4ee	8ee
4c	.	.	4eee
.	4.e	4g#	.
4B	.	.	4ddd
.	.	8a	.
8A	8A	8ee	8ccc
8B	8B	8dd	8bb
8c	8c	8cc	8aa
=136	=136	=136	=136
2d	2d	2b	2gg
2D	2F#	8cc	8aa
.	.	8b	8gg
.	.	8cc	8aa
.	.	8dd	8bb
=137	=137	=137	=137
4G	4G	4b	4gg
2.r	2.r	2.r	2.r
=138	=138	=138	=138
8D	8a	8f#	2r
4c	8r	8r	.
.	8b	8g	.
4B	8r	8r	.
.	8cc	8a	16dd
.	.	.	16ee
8A	4.r	4.r	16dd
.	.	.	16cc#
8G	.	.	8dd
8F#	.	.	8dd
=139	=139	=139	=139
8D	8b	8g	2r
4d	8r	8r	.
.	8cc	8a	.
4c	8r	8r	.
.	8dd	8b	16dd
.	.	.	16ee
8B	4.r	4.r	16dd
.	.	.	16cc#
8A	.	.	8dd
8G	.	.	8dd
=140	=140	=140	=140
8F#	8d	2r	8aa
8r	4cc	.	8r
8G	.	.	8bb
8r	4b	.	8r
8A	.	16dd	8ccc
.	.	16ee	.
4.r	8a	16dd	4.r
.	.	16cc#	.
.	8g	8dd	.
.	8f#	8dd	.
=141	=141	=141	=141
8G	8d	2r	8bb
8r	4dd	.	8r
8A	.	.	8ccc
8r	4cc	.	8r
8B	.	16dd	8ddd
.	.	16ee	.
4.r	8b	16dd	4.r
.	.	16cc#	.
.	8a	8dd	.
.	8g	8dd	.
=142	=142	=142	=142
8CC	4ee	4r	8ee
4c	.	.	4eee
.	4.e	4g#	.
4B	.	.	4ddd
.	.	8a	.
8A	8A	8ee	8ccc
8B	8B	8dd	8bb
8c	8c	8cc	8aa
=143	=143	=143	=143
2d	2d	2b	2gg
2D	2F#	8cc	8aa
.	.	8b	8gg
.	.	8cc	8aa
.	.	8dd	8bb
=144	=144	=144	=144
4G	16g	16b	4gg
.	16a	16cc	.
.	16g	16b	.
.	16f#	16a	.
4r	16g	16b	4r
.	16b	16dd	.
.	16a	16cc	.
.	16g	16b	.
16D	2a	2cc	16f#
16E	.	.	16g
16F#	.	.	16a
16E	.	.	16g
16D	.	.	16f#
16A	.	.	16cc
16F#	.	.	16a
16D	.	.	16f#
=145	=145	=145	=145
4G	16g	16b	4g
.	16a	16cc	.
.	16g	16b	.
.	16f#	16a	.
4r	16g	16b	4r
.	16b	16dd	.
.	16a	16cc	.
.	16g	16b	.
16D	2a	2cc	16ff#
16E	.	.	16gg
16F#	.	.	16aa
16E	.	.	16gg
16D	.	.	16ff#
16A	.	.	16ccc
16F#	.	.	16aa
16D	.	.	16ff#
=146	=146	=146	=146
4G	4g	4b	4gg
4GG	4b 4d 4G	4gg 4b 4d	4gg 4d 4b
4GG	4b 4G 4d	4gg 4b 4d	4gg 4b 4d
4r	4r	4r	4r
==	==	==	==
*-	*-	*-	*-
!!!RWG1: This file contains only pitch and duration data.
!!!RWG2: Transposing instruments are not transposed.
!!!RWG3: Spines may have incompatible meters.
!!!RWG4: Durations of rests and tied notes may be interpreted.
!!!RWG: Key is interpreted using the Humdrum key tool.
!!!GTL: 6 Quartetti ("Apponyi")
!!!OPT: The Rider
!!!AFT: stage1
!!!END: 1997/04/15
!!!KEY: 848122605
!!!EMD: Converted from MuseData to Humdrum Dec 16, 2000, by Andreas Kornstaedt using muse2kern.
!!!EMD: Manual editing by Craig Sapp, Nov 2001
